static/img/kroki/d1378795c6458a4c33d5c53aab8b8119.svg

<?xml version="1.0" encoding="us-ascii" standalone="no"?><svg xmlns="http://www.w3.org/2000/svg" xmlns:xlink="http://www.w3.org/1999/xlink" contentStyleType="text/css" height="919px" preserveAspectRatio="none" style="width:423px;height:919px;" version="1.1" viewBox="0 0 423 919" width="423px" zoomAndPan="magnify"><defs/><g><!--class phantom_resource--><g id="elem_phantom_resource"><rect codeLine="23" fill="#3D176E" height="39.7891" id="phantom_resource" rx="2.5" ry="2.5" style="stroke:#000D19;stroke-width:0.5;" width="198" x="203.5" y="438.76"/><ellipse cx="218.5" cy="458.6545" fill="#ADD1B2" rx="11" ry="11" style="stroke:#181818;stroke-width:1.0;"/><path d="M221.4688,464.2952 Q220.8906,464.592 220.25,464.7327 Q219.6094,464.8889 218.9063,464.8889 Q216.4063,464.8889 215.0781,463.2483 Q213.7656,461.592 213.7656,458.467 Q213.7656,455.342 215.0781,453.6858 Q216.4063,452.0295 218.9063,452.0295 Q219.6094,452.0295 220.25,452.1858 Q220.9063,452.342 221.4688,452.6389 L221.4688,455.3577 Q220.8438,454.7795 220.25,454.5139 Q219.6563,454.2327 219.0313,454.2327 Q217.6875,454.2327 217,455.3108 Q216.3125,456.3733 216.3125,458.467 Q216.3125,460.5608 217,461.6389 Q217.6875,462.7014 219.0313,462.7014 Q219.6563,462.7014 220.25,462.4358 Q220.8438,462.1545 221.4688,461.5764 L221.4688,464.2952 Z " fill="#000000"/><text fill="#D9B8FF" font-family="Helvetica" font-size="17" lengthAdjust="spacing" textLength="156" x="237.5" y="464.5398">phantom_resource</text></g><!--class region--><g id="elem_region"><rect codeLine="26" fill="#3D176E" height="152.9766" id="region" rx="2.5" ry="2.5" style="stroke:#000D19;stroke-width:0.5;" width="195" x="205" y="599.54"/><ellipse cx="266.75" cy="619.4345" fill="#ADD1B2" rx="11" ry="11" style="stroke:#181818;stroke-width:1.0;"/><path d="M269.7188,625.0752 Q269.1406,625.372 268.5,625.5127 Q267.8594,625.6689 267.1563,625.6689 Q264.6563,625.6689 263.3281,624.0283 Q262.0156,622.372 262.0156,619.247 Q262.0156,616.122 263.3281,614.4658 Q264.6563,612.8095 267.1563,612.8095 Q267.8594,612.8095 268.5,612.9658 Q269.1563,613.122 269.7188,613.4189 L269.7188,616.1377 Q269.0938,615.5595 268.5,615.2939 Q267.9063,615.0127 267.2813,615.0127 Q265.9375,615.0127 265.25,616.0908 Q264.5625,617.1533 264.5625,619.247 Q264.5625,621.3408 265.25,622.4189 Q265.9375,623.4814 267.2813,623.4814 Q267.9063,623.4814 268.5,623.2158 Q269.0938,622.9345 269.7188,622.3564 L269.7188,625.0752 Z " fill="#000000"/><text fill="#D9B8FF" font-family="Helvetica" font-size="17" lengthAdjust="spacing" textLength="53" x="292.25" y="625.3198">region</text><line style="stroke:#000D19;stroke-width:0.5;" x1="206" x2="399" y1="639.3291" y2="639.3291"/><text fill="#D9B8FF" font-family="sans-serif" font-size="14" font-weight="bold" lengthAdjust="spacing" textLength="59" x="216" y="661.3242">latitude</text><text fill="#D9B8FF" font-family="sans-serif" font-size="14" lengthAdjust="spacing" textLength="57" x="275" y="661.3242">: double</text><text fill="#D9B8FF" font-family="sans-serif" font-size="14" font-weight="bold" lengthAdjust="spacing" textLength="84" x="216" y="687.6211">long_name</text><text fill="#D9B8FF" font-family="sans-serif" font-size="14" lengthAdjust="spacing" textLength="48" x="300" y="687.6211">: string</text><text fill="#D9B8FF" font-family="sans-serif" font-size="14" font-weight="bold" lengthAdjust="spacing" textLength="74" x="216" y="713.9179">longitude</text><text fill="#D9B8FF" font-family="sans-serif" font-size="14" lengthAdjust="spacing" textLength="57" x="290" y="713.9179">: double</text><text fill="#D9B8FF" font-family="sans-serif" font-size="14" font-weight="bold" lengthAdjust="spacing" textLength="108" x="216" y="740.2148">region_in_use</text><text fill="#D9B8FF" font-family="sans-serif" font-size="14" lengthAdjust="spacing" textLength="65" x="324" y="740.2148">: boolean</text></g><!--class resource--><g id="elem_resource"><rect codeLine="32" fill="#3D176E" height="310.7578" id="resource" rx="2.5" ry="2.5" style="stroke:#000D19;stroke-width:0.5;" width="227" x="189" y="7"/><ellipse cx="257.75" cy="26.8945" fill="#ADD1B2" rx="11" ry="11" style="stroke:#181818;stroke-width:1.0;"/><path d="M260.7188,32.5352 Q260.1406,32.832 259.5,32.9727 Q258.8594,33.1289 258.1563,33.1289 Q255.6563,33.1289 254.3281,31.4883 Q253.0156,29.832 253.0156,26.707 Q253.0156,23.582 254.3281,21.9258 Q255.6563,20.2695 258.1563,20.2695 Q258.8594,20.2695 259.5,20.4258 Q260.1563,20.582 260.7188,20.8789 L260.7188,23.5977 Q260.0938,23.0195 259.5,22.7539 Q258.9063,22.4727 258.2813,22.4727 Q256.9375,22.4727 256.25,23.5508 Q255.5625,24.6133 255.5625,26.707 Q255.5625,28.8008 256.25,29.8789 Q256.9375,30.9414 258.2813,30.9414 Q258.9063,30.9414 259.5,30.6758 Q260.0938,30.3945 260.7188,29.8164 L260.7188,32.5352 Z " fill="#000000"/><text fill="#D9B8FF" font-family="Helvetica" font-size="17" lengthAdjust="spacing" textLength="71" x="283.25" y="32.7798">resource</text><line style="stroke:#000D19;stroke-width:0.5;" x1="190" x2="415" y1="46.7891" y2="46.7891"/><text fill="#D9B8FF" font-family="sans-serif" font-size="14" font-weight="bold" lengthAdjust="spacing" textLength="29" x="200" y="68.7842">age</text><text fill="#D9B8FF" font-family="sans-serif" font-size="14" lengthAdjust="spacing" textLength="66" x="229" y="68.7842">: duration</text><text fill="#D9B8FF" font-family="sans-serif" font-size="14" font-weight="bold" lengthAdjust="spacing" textLength="43" x="200" y="95.0811">atime</text><text fill="#D9B8FF" font-family="sans-serif" font-size="14" lengthAdjust="spacing" textLength="70" x="243" y="95.0811">: datetime</text><text fill="#D9B8FF" font-family="sans-serif" font-size="14" font-weight="bold" lengthAdjust="spacing" textLength="43" x="200" y="121.3779">ctime</text><text fill="#D9B8FF" font-family="sans-serif" font-size="14" lengthAdjust="spacing" textLength="70" x="243" y="121.3779">: datetime</text><text fill="#D9B8FF" font-family="sans-serif" font-size="14" font-weight="bold" lengthAdjust="spacing" textLength="14" x="200" y="147.6748">id</text><text fill="#D9B8FF" font-family="sans-serif" font-size="14" lengthAdjust="spacing" textLength="48" x="214" y="147.6748">: string</text><text fill="#D9B8FF" font-family="sans-serif" font-size="14" font-weight="bold" lengthAdjust="spacing" textLength="33" x="200" y="173.9717">kind</text><text fill="#D9B8FF" font-family="sans-serif" font-size="14" lengthAdjust="spacing" textLength="48" x="233" y="173.9717">: string</text><text fill="#D9B8FF" font-family="sans-serif" font-size="14" font-weight="bold" lengthAdjust="spacing" textLength="90" x="200" y="200.2686">last_access</text><text fill="#D9B8FF" font-family="sans-serif" font-size="14" lengthAdjust="spacing" textLength="66" x="290" y="200.2686">: duration</text><text fill="#D9B8FF" font-family="sans-serif" font-size="14" font-weight="bold" lengthAdjust="spacing" textLength="90" x="200" y="226.5654">last_update</text><text fill="#D9B8FF" font-family="sans-serif" font-size="14" lengthAdjust="spacing" textLength="66" x="290" y="226.5654">: duration</text><text fill="#D9B8FF" font-family="sans-serif" font-size="14" font-weight="bold" lengthAdjust="spacing" textLength="48" x="200" y="252.8623">mtime</text><text fill="#D9B8FF" font-family="sans-serif" font-size="14" lengthAdjust="spacing" textLength="70" x="248" y="252.8623">: datetime</text><text fill="#D9B8FF" font-family="sans-serif" font-size="14" font-weight="bold" lengthAdjust="spacing" textLength="43" x="200" y="279.1592">name</text><text fill="#D9B8FF" font-family="sans-serif" font-size="14" lengthAdjust="spacing" textLength="48" x="243" y="279.1592">: string</text><text fill="#D9B8FF" font-family="sans-serif" font-size="14" font-weight="bold" lengthAdjust="spacing" textLength="34" x="200" y="305.4561">tags</text><text fill="#D9B8FF" font-family="sans-serif" font-size="14" lengthAdjust="spacing" textLength="171" x="234" y="305.4561">: dictionary[string, string]</text></g><!--class slack_region--><g id="elem_slack_region"><rect codeLine="44" fill="#3D176E" height="39.7891" id="slack_region" rx="2.5" ry="2.5" style="stroke:#000D19;stroke-width:0.5;" width="145" x="51" y="873.52"/><ellipse cx="66" cy="893.4145" fill="#ADD1B2" rx="11" ry="11" style="stroke:#181818;stroke-width:1.0;"/><path d="M68.9688,899.0552 Q68.3906,899.352 67.75,899.4927 Q67.1094,899.6489 66.4063,899.6489 Q63.9063,899.6489 62.5781,898.0083 Q61.2656,896.352 61.2656,893.227 Q61.2656,890.102 62.5781,888.4458 Q63.9063,886.7895 66.4063,886.7895 Q67.1094,886.7895 67.75,886.9458 Q68.4063,887.102 68.9688,887.3989 L68.9688,890.1177 Q68.3438,889.5395 67.75,889.2739 Q67.1563,888.9927 66.5313,888.9927 Q65.1875,888.9927 64.5,890.0708 Q63.8125,891.1333 63.8125,893.227 Q63.8125,895.3208 64.5,896.3989 Q65.1875,897.4614 66.5313,897.4614 Q67.1563,897.4614 67.75,897.1958 Q68.3438,896.9145 68.9688,896.3364 L68.9688,899.0552 Z " fill="#000000"/><text fill="#D9B8FF" font-family="Helvetica" font-size="17" lengthAdjust="spacing" textLength="103" x="85" y="899.2998">slack_region</text></g><!--class slack_resource--><g id="elem_slack_resource"><rect codeLine="47" fill="#3D176E" height="39.7891" id="slack_resource" rx="2.5" ry="2.5" style="stroke:#000D19;stroke-width:0.5;" width="163" x="7" y="656.14"/><ellipse cx="22" cy="676.0345" fill="#ADD1B2" rx="11" ry="11" style="stroke:#181818;stroke-width:1.0;"/><path d="M24.9688,681.6752 Q24.3906,681.972 23.75,682.1127 Q23.1094,682.2689 22.4063,682.2689 Q19.9063,682.2689 18.5781,680.6283 Q17.2656,678.972 17.2656,675.847 Q17.2656,672.722 18.5781,671.0658 Q19.9063,669.4095 22.4063,669.4095 Q23.1094,669.4095 23.75,669.5658 Q24.4063,669.722 24.9688,670.0189 L24.9688,672.7377 Q24.3438,672.1595 23.75,671.8939 Q23.1563,671.6127 22.5313,671.6127 Q21.1875,671.6127 20.5,672.6908 Q19.8125,673.7533 19.8125,675.847 Q19.8125,677.9408 20.5,679.0189 Q21.1875,680.0814 22.5313,680.0814 Q23.1563,680.0814 23.75,679.8158 Q24.3438,679.5345 24.9688,678.9564 L24.9688,681.6752 Z " fill="#000000"/><text fill="#D9B8FF" font-family="Helvetica" font-size="17" lengthAdjust="spacing" textLength="121" x="41" y="681.9198">slack_resource</text></g><!--reverse link resource to phantom_resource--><g id="link_resource_phantom_resource"><path codeLine="50" d="M302.5,335.84 C302.5,384.13 302.5,413.36 302.5,438.67 " fill="none" id="resource-backto-phantom_resource" style="stroke:#FFAF37;stroke-width:2.0;"/><polygon fill="none" points="302.5,317.84,296.5,335.84,308.5,335.84,302.5,317.84" style="stroke:#FFAF37;stroke-width:2.0;"/></g><!--reverse link phantom_resource to region--><g id="link_phantom_resource_region"><path codeLine="51" d="M302.5,496.76 C302.5,523.63 302.5,556.11 302.5,599.15 " fill="none" id="phantom_resource-backto-region" style="stroke:#FFAF37;stroke-width:2.0;"/><polygon fill="none" points="302.5,478.76,296.5,496.76,308.5,496.76,302.5,478.76" style="stroke:#FFAF37;stroke-width:2.0;"/></g><!--reverse link region to slack_region--><g id="link_region_slack_region"><path codeLine="52" d="M227.8848,766.8131 C192.2548,809.6831 162,846.09 139.62,873.02 " fill="none" id="region-backto-slack_region" style="stroke:#FFAF37;stroke-width:2.0;"/><polygon fill="none" points="239.39,752.97,223.2704,762.978,232.4991,770.6481,239.39,752.97" style="stroke:#FFAF37;stroke-width:2.0;"/></g><!--reverse link slack_resource to slack_region--><g id="link_slack_resource_slack_region"><path codeLine="53" d="M94.495,713.9173 C101.115,754.6873 113.69,832.03 120.35,873.03 " fill="none" id="slack_resource-backto-slack_region" style="stroke:#FFAF37;stroke-width:2.0;"/><polygon fill="none" points="91.61,696.15,88.5725,714.879,100.4174,712.9557,91.61,696.15" style="stroke:#FFAF37;stroke-width:2.0;"/></g><!--SRC=[XPDFRzim3CNl_XG2UZCQ86dHfHbswG8KswKerjs6mQ0bsX5YImP5jyZ-VFV9aMSeLjhUxFT-uYCfUwSL2cmxFeWMsnB9PMwlJGS4hRWZiYzRsrWI5rK5rVLwRjvRm-y23z2Y-8BDCxAMC2U-xxJS6tHEN4NMPv3xccnlL2ZF1CPv2mr7rBO1v-wOIPSzOzICsfItLJKdvqKlhjLg_G4Jp9926f7bSgbMcpdoRjIRSq_4a_w5OXKlxS4o9cqc4KVgpIu78ceo6VI__sgFZw2KDhMuYRHleISoI2VwqmwKVHde2XeNnpX6Gik73hV9LBYvLTNwBFprDJYJm-f4jmF3jYq8dUr9elYTPNz7Zx3MrdWbpnjWpRt2FFyebEtB1WVHchemVkn1TVxJCVMefcoeLMXJzExebDOs22OAcnh8SwZ3wPvyhZM3mZhaA60SdhqcpsXQdJJZDt8g-2mkG4h_bymIZaxV3RLcJdic9ncReGuLjHoE0Hr-1EzoP7vEexh6tqanRJVHuvkOtZxzMImMoNLboVq5BXJFneoWnR7PBEiCyGy0]--></g></svg>

<svg xmlns="http://www.w3.org/2000/svg" width="423" height="919" viewBox="0 0 423 919"><rect width="198" height="39.789" x="203.5" y="438.76" fill="#3D176E" rx="2.5" ry="2.5" style="stroke:#000d19;stroke-width:.5"/><circle cx="218.5" cy="458.654" r="11" fill="#ADD1B2" style="stroke:#181818;stroke-width:1"/><path d="M221.469 464.295q-.578.297-1.219.438-.64.156-1.344.156-2.5 0-3.828-1.64-1.312-1.657-1.312-4.782t1.312-4.781q1.328-1.656 3.828-1.656.703 0 1.344.156.656.156 1.219.453v2.719q-.625-.579-1.219-.844-.594-.281-1.219-.281-1.344 0-2.031 1.078-.687 1.062-.687 3.156t.687 3.172q.688 1.062 2.031 1.062.625 0 1.219-.265.594-.281 1.219-.86z"/><text x="237.5" y="464.54" fill="#D9B8FF" font-family="Helvetica" font-size="17" textLength="156">phantom_resource</text><rect width="195" height="152.977" x="205" y="599.54" fill="#3D176E" rx="2.5" ry="2.5" style="stroke:#000d19;stroke-width:.5"/><circle cx="266.75" cy="619.434" r="11" fill="#ADD1B2" style="stroke:#181818;stroke-width:1"/><path d="M269.719 625.075q-.578.297-1.219.438-.64.156-1.344.156-2.5 0-3.828-1.64-1.312-1.657-1.312-4.782t1.312-4.781q1.328-1.657 3.828-1.657.703 0 1.344.157.656.156 1.219.453v2.719q-.625-.579-1.219-.844-.594-.281-1.219-.281-1.344 0-2.031 1.078-.687 1.062-.687 3.156t.687 3.172q.688 1.062 2.031 1.062.625 0 1.219-.265.594-.282 1.219-.86z"/><text x="292.25" y="625.32" fill="#D9B8FF" font-family="Helvetica" font-size="17" textLength="53">region</text><path d="M206 639.329h193" style="stroke:#000d19;stroke-width:.5"/><text x="216" y="661.324" fill="#D9B8FF" font-family="sans-serif" font-size="14" font-weight="bold" textLength="59">latitude</text><text x="275" y="661.324" fill="#D9B8FF" font-family="sans-serif" font-size="14" textLength="57">: double</text><text x="216" y="687.621" fill="#D9B8FF" font-family="sans-serif" font-size="14" font-weight="bold" textLength="84">long_name</text><text x="300" y="687.621" fill="#D9B8FF" font-family="sans-serif" font-size="14" textLength="48">: string</text><text x="216" y="713.918" fill="#D9B8FF" font-family="sans-serif" font-size="14" font-weight="bold" textLength="74">longitude</text><text x="290" y="713.918" fill="#D9B8FF" font-family="sans-serif" font-size="14" textLength="57">: double</text><text x="216" y="740.215" fill="#D9B8FF" font-family="sans-serif" font-size="14" font-weight="bold" textLength="108">region_in_use</text><text x="324" y="740.215" fill="#D9B8FF" font-family="sans-serif" font-size="14" textLength="65">: boolean</text><rect width="227" height="310.758" x="189" y="7" fill="#3D176E" rx="2.5" ry="2.5" style="stroke:#000d19;stroke-width:.5"/><circle cx="257.75" cy="26.895" r="11" fill="#ADD1B2" style="stroke:#181818;stroke-width:1"/><path d="M260.719 32.535q-.578.297-1.219.438-.64.156-1.344.156-2.5 0-3.828-1.64-1.312-1.657-1.312-4.782t1.312-4.781q1.328-1.656 3.828-1.656.703 0 1.344.156.656.156 1.219.453v2.719q-.625-.578-1.219-.844-.594-.281-1.219-.281-1.344 0-2.031 1.078-.687 1.062-.687 3.156t.687 3.172q.688 1.062 2.031 1.062.625 0 1.219-.265.594-.281 1.219-.86z"/><text x="283.25" y="32.78" fill="#D9B8FF" font-family="Helvetica" font-size="17" textLength="71">resource</text><path d="M190 46.789h225" style="stroke:#000d19;stroke-width:.5"/><text x="200" y="68.784" fill="#D9B8FF" font-family="sans-serif" font-size="14" font-weight="bold" textLength="29">age</text><text x="229" y="68.784" fill="#D9B8FF" font-family="sans-serif" font-size="14" textLength="66">: duration</text><text x="200" y="95.081" fill="#D9B8FF" font-family="sans-serif" font-size="14" font-weight="bold" textLength="43">atime</text><text x="243" y="95.081" fill="#D9B8FF" font-family="sans-serif" font-size="14" textLength="70">: datetime</text><text x="200" y="121.378" fill="#D9B8FF" font-family="sans-serif" font-size="14" font-weight="bold" textLength="43">ctime</text><text x="243" y="121.378" fill="#D9B8FF" font-family="sans-serif" font-size="14" textLength="70">: datetime</text><text x="200" y="147.675" fill="#D9B8FF" font-family="sans-serif" font-size="14" font-weight="bold" textLength="14">id</text><text x="214" y="147.675" fill="#D9B8FF" font-family="sans-serif" font-size="14" textLength="48">: string</text><text x="200" y="173.972" fill="#D9B8FF" font-family="sans-serif" font-size="14" font-weight="bold" textLength="33">kind</text><text x="233" y="173.972" fill="#D9B8FF" font-family="sans-serif" font-size="14" textLength="48">: string</text><text x="200" y="200.269" fill="#D9B8FF" font-family="sans-serif" font-size="14" font-weight="bold" textLength="90">last_access</text><text x="290" y="200.269" fill="#D9B8FF" font-family="sans-serif" font-size="14" textLength="66">: duration</text><text x="200" y="226.565" fill="#D9B8FF" font-family="sans-serif" font-size="14" font-weight="bold" textLength="90">last_update</text><text x="290" y="226.565" fill="#D9B8FF" font-family="sans-serif" font-size="14" textLength="66">: duration</text><text x="200" y="252.862" fill="#D9B8FF" font-family="sans-serif" font-size="14" font-weight="bold" textLength="48">mtime</text><text x="248" y="252.862" fill="#D9B8FF" font-family="sans-serif" font-size="14" textLength="70">: datetime</text><text x="200" y="279.159" fill="#D9B8FF" font-family="sans-serif" font-size="14" font-weight="bold" textLength="43">name</text><text x="243" y="279.159" fill="#D9B8FF" font-family="sans-serif" font-size="14" textLength="48">: string</text><text x="200" y="305.456" fill="#D9B8FF" font-family="sans-serif" font-size="14" font-weight="bold" textLength="34">tags</text><text x="234" y="305.456" fill="#D9B8FF" font-family="sans-serif" font-size="14" textLength="171">: dictionary[string, string]</text><rect width="145" height="39.789" x="51" y="873.52" fill="#3D176E" rx="2.5" ry="2.5" style="stroke:#000d19;stroke-width:.5"/><circle cx="66" cy="893.414" r="11" fill="#ADD1B2" style="stroke:#181818;stroke-width:1"/><path d="M68.969 899.055q-.578.297-1.219.438-.64.156-1.344.156-2.5 0-3.828-1.64-1.312-1.657-1.312-4.782t1.312-4.781q1.328-1.657 3.828-1.657.703 0 1.344.157.656.156 1.219.453v2.719q-.625-.579-1.219-.844-.594-.281-1.219-.281-1.344 0-2.031 1.078-.687 1.062-.687 3.156t.687 3.172q.688 1.062 2.031 1.062.625 0 1.219-.265.594-.282 1.219-.86z"/><text x="85" y="899.3" fill="#D9B8FF" font-family="Helvetica" font-size="17" textLength="103">slack_region</text><rect width="163" height="39.789" x="7" y="656.14" fill="#3D176E" rx="2.5" ry="2.5" style="stroke:#000d19;stroke-width:.5"/><circle cx="22" cy="676.034" r="11" fill="#ADD1B2" style="stroke:#181818;stroke-width:1"/><path d="M24.969 681.675q-.578.297-1.219.438-.64.156-1.344.156-2.5 0-3.828-1.64-1.312-1.657-1.312-4.782t1.312-4.781q1.328-1.657 3.828-1.657.703 0 1.344.157.656.156 1.219.453v2.719q-.625-.579-1.219-.844-.594-.281-1.219-.281-1.343 0-2.031 1.078-.687 1.062-.687 3.156t.687 3.172q.688 1.062 2.031 1.062.625 0 1.219-.265.594-.282 1.219-.86z"/><text x="41" y="681.92" fill="#D9B8FF" font-family="Helvetica" font-size="17" textLength="121">slack_resource</text><path fill="none" d="M302.5 335.84v102.83m0-120.83-6 18h12zm0 178.92v102.39m0-120.39-6 18h12z" style="stroke:#ffaf37;stroke-width:2"/><g fill="none"><path d="M227.885 766.813C192.255 809.683 162 846.09 139.62 873.02" style="stroke:#ffaf37;stroke-width:2"/><path d="m239.39 752.97-16.12 10.008 9.23 7.67z" style="stroke:#ffaf37;stroke-width:2"/></g><g fill="none"><path d="M94.495 713.917c6.62 40.77 19.195 118.113 25.855 159.113" style="stroke:#ffaf37;stroke-width:2"/><path d="m91.61 696.15-3.037 18.729 11.844-1.923z" style="stroke:#ffaf37;stroke-width:2"/></g></svg>
